public/logo.svg

<svg width="64" height="14" viewBox="0 0 64 14" fill="none" xmlns="http://www.w3.org/2000/svg">
<g clip-path="url(#clip0)">
<path fill-rule="evenodd" clip-rule="evenodd" d="M60.1595 7.01493C60.1595 10.4285 59.6617 11.2131 57.4986 11.2131C55.335 11.2131 54.8377 10.4285 54.8377 7.01493C54.8377 3.55993 55.335 2.76536 57.4986 2.76536C59.6617 2.76536 60.1595 3.55993 60.1595 7.01493ZM57.4986 0.0251465C53.0142 0.0251465 51.7173 1.59288 51.7173 7.01493C51.7173 12.3969 53.0142 13.9533 57.4986 13.9533C61.9829 13.9533 63.2794 12.3969 63.2794 7.01493C63.2794 1.59288 61.9829 0.0251465 57.4986 0.0251465Z" fill="#FFFFFE"/>
<path fill-rule="evenodd" clip-rule="evenodd" d="M51.0927 11.1265H47.0601V0.57543C47.0601 0.299656 46.8887 0.128662 46.6138 0.128662H44.4205C44.1451 0.128662 43.9742 0.299656 43.9742 0.57543V13.4031C43.9742 13.6935 44.1412 13.8667 44.4205 13.8667H51.0927C51.3685 13.8667 51.5394 13.6958 51.5394 13.4199V11.5728C51.5394 11.2975 51.3685 11.1265 51.0927 11.1265Z" fill="#FFFFFE"/>
<path fill-rule="evenodd" clip-rule="evenodd" d="M36.7374 7.54432H34.4976L35.5607 3.02937C35.6501 2.68738 35.6978 2.65234 35.8303 2.65234H36.7885C36.9188 2.65234 36.9794 2.68738 37.0687 3.02937L38.1319 7.54432H36.7374ZM42.551 13.3817L39.9015 2.26535C39.3974 0.338373 39.0217 0.0666504 36.9114 0.0666504L36.1104 0.0692918L35.718 0.0666504C33.6079 0.0666504 33.2322 0.338373 32.7279 2.26535L30.0785 13.3817C30.0397 13.5366 30.0566 13.662 30.1291 13.7545C30.1997 13.8452 30.3137 13.8913 30.4678 13.8913H32.6774C32.9964 13.8913 33.0571 13.6493 33.1018 13.47L33.8303 10.3766H38.7992L39.5277 13.47C39.5724 13.6493 39.633 13.8913 39.9521 13.8913H42.1617C42.3158 13.8913 42.4297 13.8452 42.5004 13.7545C42.5729 13.662 42.5897 13.5366 42.551 13.3817Z" fill="#FFFFFE"/>
<path fill-rule="evenodd" clip-rule="evenodd" d="M30.7839 0.265404C30.7132 0.174713 30.5992 0.128662 30.4451 0.128662H28.2355C27.9164 0.128662 27.8558 0.370712 27.8112 0.549455L25.3522 10.9906C25.2628 11.3325 25.2384 11.3676 25.122 11.3676L24.4683 11.3675L24.5516 11.3676C24.4419 11.3676 24.4113 11.3325 24.3219 10.9906L21.863 0.549455C21.8183 0.370712 21.7577 0.128662 21.4386 0.128662H19.2289C19.0749 0.128662 18.9609 0.174713 18.8903 0.265404C18.8174 0.357945 18.8009 0.483329 18.8397 0.638385L21.4892 11.7546C21.9934 13.6812 22.3686 13.9534 24.4792 13.9534L25.2191 13.9507L25.195 13.9534C27.3056 13.9534 27.6808 13.6812 28.185 11.7546L30.8345 0.638385C30.8732 0.483329 30.8568 0.357945 30.7839 0.265404Z" fill="#FFFFFE"/>
<path fill-rule="evenodd" clip-rule="evenodd" d="M16.5369 0.128662H14.3447C14.0648 0.128662 13.8978 0.301857 13.8978 0.592688V13.4031C13.8978 13.6935 14.0648 13.8667 14.3447 13.8667H16.5369C16.8168 13.8667 16.9837 13.6935 16.9837 13.4031V0.592688C16.9837 0.301857 16.8168 0.128662 16.5369 0.128662Z" fill="#FFFFFE"/>
<path fill-rule="evenodd" clip-rule="evenodd" d="M12.0706 13.2134L9.43054 9.40054L8.95278 8.70257C9.17986 8.53756 9.6165 8.22023 9.87731 8.02696C10.9372 7.23706 11.5112 6.47701 11.6821 5.63454C11.8179 4.96395 11.874 3.72359 11.6912 2.67825C11.3479 0.717107 9.96439 0.0904535 6.66708 0.0904535C5.12717 0.0904535 1.99795 0.0926549 0.625339 0.0840049C0.415603 0.0826172 0.0778426 0.150152 0.0619055 0.745372L0.0477295 13.6236C0.0636666 13.7162 0.197239 13.8548 0.510433 13.8548H2.70315C3.0159 13.8548 3.14992 13.7162 3.14992 13.3912L3.13398 2.69806C4.2641 2.69806 5.89761 2.70335 6.94471 2.70335C7.63669 2.70335 8.22434 2.85312 8.43452 2.98493C8.83515 3.23596 8.97832 3.59054 8.9961 4.09525C9.02577 4.94027 8.62779 5.42762 8.03283 5.81328C7.27428 6.30557 6.36032 6.85765 5.81414 7.18819C5.57711 7.33154 5.41342 7.43112 5.36878 7.46071C5.22429 7.55694 5.08931 7.73111 5.26303 8.01331C5.5757 8.52022 8.65517 13.3401 8.68837 13.3917C8.89766 13.7057 9.07772 13.8548 9.53541 13.8548H11.7103C11.9857 13.8548 12.0942 13.7226 12.1343 13.6432C12.1995 13.5161 12.1758 13.3593 12.0706 13.2134Z" fill="#FFFFFE"/>
</g>
<defs>
<clipPath id="clip0">
<rect width="63.3082" height="14" fill="white"/>
</clipPath>
</defs>
</svg>

<svg xmlns="http://www.w3.org/2000/svg" width="64" height="14" fill="none" xmlns:v="https://vecta.io/nano"><g clip-path="url(#A)" fill-rule="evenodd" fill="#fffffe"><path d="M60.16 7.015c0 3.414-.498 4.198-2.66 4.198s-2.66-.785-2.66-4.198c0-3.455.497-4.25 2.66-4.25s2.66.795 2.66 4.25zm-2.66-7c-4.484 0-5.78 1.568-5.78 7 0 5.382 1.297 6.938 5.78 6.938s5.78-1.556 5.78-6.938c0-5.422-1.297-7-5.78-7zm-6.407 11.112H47.06V.575a.41.41 0 0 0-.446-.447H44.42a.41.41 0 0 0-.446.447v12.828a.41.41 0 0 0 .446.464h6.672a.41.41 0 0 0 .447-.447v-1.847a.41.41 0 0 0-.447-.446zM36.737 7.544h-2.24L35.56 3.03c.1-.342.137-.377.27-.377h.958c.13 0 .2.035.28.377l1.063 4.515h-1.395zm5.814 5.837L39.9 2.265c-.504-1.927-.88-2.2-3-2.2l-.8.003-.392-.003c-2.1 0-2.486.272-3 2.2L30.06 13.38c-.04.155-.022.28.05.373s.185.137.34.137h2.2c.32 0 .38-.242.424-.42l.73-3.093h4.97l.73 3.093c.045.18.105.42.424.42h2.2c.154 0 .268-.046.34-.137s.1-.218.05-.373zM30.784.265c-.07-.1-.185-.137-.34-.137h-2.2c-.32 0-.38.242-.424.42l-2.46 10.44c-.1.342-.114.377-.23.377h-.57c-.1 0-.14-.035-.23-.377L21.863.55c-.045-.18-.105-.42-.424-.42h-2.2c-.154 0-.268.046-.34.137s-.1.218-.05.373l2.65 11.116c.504 1.927.88 2.2 3 2.2l.74-.003-.024.003c2.1 0 2.486-.272 3-2.2L30.835.638c.04-.155.022-.28-.05-.373zM16.537.13h-2.192c-.28 0-.447.173-.447.464v12.8a.41.41 0 0 0 .447.464h2.192c.28 0 .447-.173.447-.464V.593c0-.3-.167-.464-.447-.464zM12.07 13.213l-3.118-4.5.925-.676c1.06-.8 1.634-1.55 1.805-2.392.136-.67.192-1.9.01-2.956C11.348.717 9.964.1 6.667.1A1288.2 1288.2 0 0 1 .625.084C.416.083.078.15.062.745l-.014 12.88c.016.093.15.23.463.23h2.193c.313 0 .447-.14.447-.464L3.134 2.698l3.8.005c.692 0 1.28.15 1.5.282.4.25.544.606.562 1.1.03.845-.368 1.332-.963 1.718l-2.22 1.375-.445.273a.36.36 0 0 0-.106.553l3.425 5.378c.2.314.4.463.847.463H11.7c.275 0 .384-.132.424-.212.065-.127.042-.284-.064-.43z"/></g><defs><clipPath id="A"><path fill="#fff" d="M0 0h63.308v14H0z"/></clipPath></defs></svg>
